X:2073
T:Twas once
T:(Aarey Yacob in JFSS v7 n29) 
C:Traditional
O:Isle of Man
Z:Clague collection
N:Given in the Journal of the Folk Song Society (vol 7, No 29) as "Aarey Yacob"
B:Kiaull Vannin #73 
M:4/4  
K:D 
L:1/4
A |DG BG|EA AG|DG BG|Bd !fermata!dG|cd ed/B/|GB !fermata!DG|G3/2A/ BD|DG G||

